assets/svg/commands_cmd.svg

<svg width="50" height="50" viewBox="0 0 50 50" fill="none" xmlns="http://www.w3.org/2000/svg">
<rect width="50" height="50" rx="5" fill="#D9D9D9"/>
<path d="M47.4844 5.48574e-07H2.51563C2.18521 -0.000217723 1.85799 0.0647019 1.55268 0.191047C1.24737 0.317391 0.969964 0.502682 0.736323 0.736323C0.502682 0.969964 0.317391 1.24737 0.191047 1.55268C0.0647019 1.85799 -0.000217723 2.18521 5.48574e-07 2.51563V47.4844C-0.000204869 47.8148 0.0647235 48.142 0.191073 48.4473C0.317422 48.7526 0.502714 49.03 0.736352 49.2636C0.96999 49.4973 1.24739 49.6826 1.55269 49.8089C1.858 49.9353 2.18521 50.0002 2.51563 50H47.4844C47.8148 50.0002 48.142 49.9353 48.4473 49.8089C48.7526 49.6826 49.03 49.4973 49.2636 49.2636C49.4973 49.03 49.6826 48.7526 49.8089 48.4473C49.9353 48.142 50.0002 47.8148 50 47.4844V2.51563C50.0002 2.18521 49.9353 1.85799 49.809 1.55268C49.6826 1.24737 49.4973 0.969964 49.2637 0.736323C49.03 0.502682 48.7526 0.317391 48.4473 0.191047C48.142 0.0647019 47.8148 -0.000217723 47.4844 5.48574e-07ZM18.9375 2.59375H22.4063C22.6135 2.59375 22.8122 2.67606 22.9587 2.82257C23.1052 2.96909 23.1875 3.1678 23.1875 3.375C23.1875 3.5822 23.1052 3.78091 22.9587 3.92743C22.8122 4.07394 22.6135 4.15625 22.4063 4.15625H18.9375C18.7303 4.15625 18.5316 4.07394 18.3851 3.92743C18.2386 3.78091 18.1562 3.5822 18.1562 3.375C18.1562 3.1678 18.2386 2.96909 18.3851 2.82257C18.5316 2.67606 18.7303 2.59375 18.9375 2.59375ZM12.0313 2.59375H15.4844C15.6916 2.59375 15.8903 2.67606 16.0368 2.82257C16.1833 2.96909 16.2656 3.1678 16.2656 3.375C16.2656 3.5822 16.1833 3.78091 16.0368 3.92743C15.8903 4.07394 15.6916 4.15625 15.4844 4.15625H12.0313C11.8241 4.15625 11.6253 4.07394 11.4788 3.92743C11.3323 3.78091 11.25 3.5822 11.25 3.375C11.25 3.1678 11.3323 2.96909 11.4788 2.82257C11.6253 2.67606 11.8241 2.59375 12.0313 2.59375ZM5.10938 2.59375H8.5625C8.7697 2.59375 8.96842 2.67606 9.11493 2.82257C9.26144 2.96909 9.34375 3.1678 9.34375 3.375C9.34375 3.5822 9.26144 3.78091 9.11493 3.92743C8.96842 4.07394 8.7697 4.15625 8.5625 4.15625H5.10938C4.90217 4.15625 4.70346 4.07394 4.55695 3.92743C4.41044 3.78091 4.32813 3.5822 4.32813 3.375C4.32813 3.1678 4.41044 2.96909 4.55695 2.82257C4.70346 2.67606 4.90217 2.59375 5.10938 2.59375ZM48.4375 47.4844C48.4383 47.6098 48.4142 47.734 48.3665 47.85C48.3189 47.966 48.2487 48.0714 48.1601 48.1601C48.0714 48.2487 47.966 48.3189 47.85 48.3665C47.734 48.4142 47.6098 48.4383 47.4844 48.4375H2.51563C2.39024 48.4383 2.26595 48.4142 2.14996 48.3665C2.03397 48.3189 1.92859 48.2487 1.83993 48.1601C1.75127 48.0714 1.68109 47.966 1.63347 47.85C1.58584 47.734 1.56172 47.6098 1.5625 47.4844V6.73438H48.4375V47.4844ZM7.03125 45.6719H42.9688C43.6523 45.6712 44.3077 45.3994 44.791 44.916C45.2744 44.4327 45.5462 43.7773 45.5469 43.0937V12.0938C45.5462 11.4102 45.2744 10.7548 44.791 10.2715C44.3077 9.78814 43.6523 9.5163 42.9688 9.51563H7.03125C6.3477 9.5163 5.69233 9.78814 5.20898 10.2715C4.72564 10.7548 4.4538 11.4102 4.45313 12.0938V43.0937C4.45377 43.7772 4.7256 44.4326 5.20895 44.916C5.6923 45.3994 6.34768 45.6712 7.03125 45.6719ZM16.3438 20.7656H21.5469C21.7539 20.7662 21.9523 20.8487 22.0986 20.9951C22.245 21.1415 22.3275 21.3399 22.3281 21.5469C22.3249 21.7531 22.2415 21.9499 22.0957 22.0957C21.9499 22.2415 21.7531 22.3249 21.5469 22.3281H16.3438C16.1376 22.3249 15.9407 22.2415 15.7949 22.0957C15.6491 21.9499 15.5657 21.7531 15.5625 21.5469C15.5631 21.3399 15.6456 21.1415 15.792 20.9951C15.9384 20.8487 16.1367 20.7662 16.3438 20.7656ZM10.6094 15.1718C10.5352 15.0997 10.4763 15.0135 10.436 14.9182C10.3957 14.8229 10.375 14.7206 10.375 14.6171C10.375 14.5137 10.3957 14.4113 10.436 14.3161C10.4763 14.2208 10.5352 14.1346 10.6094 14.0625C10.7587 13.9196 10.9574 13.8398 11.1641 13.8398C11.3707 13.8398 11.5694 13.9196 11.7188 14.0625L15.1719 17.5313C15.2459 17.6018 15.3049 17.6866 15.3452 17.7806C15.3855 17.8746 15.4063 17.9758 15.4063 18.0781C15.4063 18.1804 15.3855 18.2816 15.3452 18.3756C15.3049 18.4696 15.2459 18.5545 15.1719 18.625L11.7188 22.0938C11.6451 22.168 11.5575 22.2269 11.4609 22.2671C11.3644 22.3074 11.2608 22.3281 11.1563 22.3281C10.9503 22.3248 10.7538 22.2406 10.6094 22.0938C10.5352 22.0217 10.4762 21.9354 10.436 21.8402C10.3957 21.7449 10.375 21.6425 10.375 21.5391C10.375 21.4356 10.3957 21.3332 10.436 21.238C10.4762 21.1427 10.5352 21.0565 10.6094 20.9844L13.5156 18.0781L10.6094 15.1718Z" fill="black"/>
</svg>

<svg xmlns="http://www.w3.org/2000/svg" width="50" height="50" fill="none" viewBox="0 0 50 50"><rect width="50" height="50" fill="#d9d9d9" rx="5"/><path fill="#000" d="M47.484 0H2.516A2.514 2.514 0 0 0 0 2.516v44.968A2.514 2.514 0 0 0 2.516 50h44.968A2.513 2.513 0 0 0 50 47.484V2.516A2.515 2.515 0 0 0 47.484 0M18.938 2.594h3.468a.781.781 0 1 1 0 1.562h-3.468a.781.781 0 1 1 0-1.562m-6.907 0h3.453a.781.781 0 1 1 0 1.562h-3.453a.781.781 0 1 1 0-1.562m-6.922 0h3.454a.781.781 0 1 1 0 1.562H5.108a.781.781 0 1 1 0-1.562m43.329 44.89a.945.945 0 0 1-.954.953H2.516a.945.945 0 0 1-.953-.953V6.734h46.875zM7.03 45.672H42.97a2.58 2.58 0 0 0 2.578-2.578v-31a2.58 2.58 0 0 0-2.578-2.578H7.03a2.58 2.58 0 0 0-2.578 2.578v31a2.58 2.58 0 0 0 2.578 2.578m9.313-24.906h5.203a.783.783 0 0 1 .781.78.794.794 0 0 1-.781.782h-5.203a.794.794 0 0 1-.782-.781.784.784 0 0 1 .782-.781m-5.735-5.594a.774.774 0 0 1 0-1.11.8.8 0 0 1 1.11 0l3.453 3.47a.756.756 0 0 1 0 1.093l-3.453 3.469a.8.8 0 0 1-.563.234.79.79 0 0 1-.547-.234.773.773 0 0 1 0-1.11l2.907-2.906z"/></svg>
